X: 1
T: reel de Bergerville
%C: Adelard Thamassin
O: Qu\'ebec
R: reel
Z: 2012 John Chambers <jc:trillian.mit.edu>
N: The parts are played in either order.
M: 2/4
L: 1/16
K: Bm
|: "Bm"B3B BFBc | dcde f2d2 | "Bm"B3B BFBc |\
[1,3 "F#7"dedc "Bm"B2F2 :|[2,4 "F#7"dedc "Bm"B4 :|
|: "D"A2BA F2AB/c/ | dcde f2d2 |\
[1,3 "D"A2BA FDFA | dAFD "A7"E3B :|\
[2,4 "D"A2BA FAdf | "A7"edce "D"d4 :|
